X:1
T:Title
%%score ( 1 2 ) ( 3 4 )
L:1/8
Q:1/4=86
M:4/4
K:Eb
V:1 treble nm="Drawbar Organ, Soprano"
V:2 treble 
V:3 bass nm="Church Organ, Bass"
V:4 bass 
V:1
 z2 z B- B4 | z2 z D- D4 | z2 z A- A4 | z2 z B- B4 | z2 z e- e4 | z2 z c- c4 | z2 z B- B4 | %7
 z2 z E- E4 | z2 z e- e2 z2 | z2 z _A- A4 | z2 z d- d2 z2 | z2 z G- G4 | z2 z e- e2 z2 | %13
 z2 z c- c4 | z2 z B- B2 z2 | z2 z[K:bass] E- E4- | E6 z2 |] %17
V:2
 G_G .=G2 EEEE | GF .E2 B,B,B,B, | F=E .F2 DDDD | Bd .c2 GGGG | B=A .B2 GG_AG | BG .E2 AAAA | %6
 ed .c2 EEED | [CA][B,G][A,F]G, B,CCB, | B=A .B2 GG[GB][_Ac] | [GB][_G=A][=GB]F FFFF | %10
 AG .A2 AA[Ac][FB] | [FA][DF][FA]E EEEE | B=A .B2 GG[GB][EG] | [EG][EF]EE EAAA | %14
 ed .c2 EE[Ec][DA] | CG[DF][K:bass]B, B,=B,B,_B,- | B,6 z2 |] %17
V:3
 z4 [E,G,][E,G,][E,G,][E,G,] | z4 [B,,F,][B,,F,][B,,F,][B,,F,] | z4 [B,,F,][B,,F,][B,,F,][B,,F,] | %3
 z4 [E,E][E,E][E,E][E,E] | z4 [E,B,][E,B,][E,C][E,B,] | z4 [A,C][A,C][A,D][A,E] | %6
 z4 [B,,G,][B,,G,][B,,G,][B,,F,] | z4 [E,G,][E,A,][E,A,][E,G,] | z4 E,E,[E,E][E,E] | %9
 [E,E][E,E][E,E][K:treble][B,D] [B,D][B,D][B,D][B,D] | z4 [B,F][B,F][B,E][B,D] | %11
 [B,D][K:bass][B,,B,][D,B,]B, B,C=B,_B, | z4 [E,B,][E,B,][E,E][E,_D] | %13
 [E,_D][F,D][G,D][A,C] [A,C][A,E][A,E][A,E] | z4 [B,,G,][B,,G,][B,,G,][B,,F,] | %15
 z2 [B,,A,][E,G,] [E,G,][E,A,][E,A,][E,G,]- | [E,G,]6 z2 |] %17
V:4
 x8 | x8 | x8 | x8 | x8 | x8 | x8 | x8 | x8 | x3[K:treble] x5 | x8 | z2[K:bass] z E,- E,4 | x8 | %13
 x8 | x8 | x8 | x8 |] %17

